svg/fluentui-system-icons/ic_fluent_text_align_left_24_filled.svg

<svg width="24" height="24" viewBox="0 0 24 24" fill="none" xmlns="http://www.w3.org/2000/svg">
<path d="M2 6C2 5.44772 2.44772 5 3 5H18C18.5523 5 19 5.44772 19 6C19 6.55228 18.5523 7 18 7H3C2.44772 7 2 6.55228 2 6ZM2 18C2 17.4477 2.44772 17 3 17H14C14.5523 17 15 17.4477 15 18C15 18.5523 14.5523 19 14 19H3C2.44772 19 2 18.5523 2 18ZM3 11C2.44772 11 2 11.4477 2 12C2 12.5523 2.44772 13 3 13H21C21.5523 13 22 12.5523 22 12C22 11.4477 21.5523 11 21 11H3Z" fill="#212121"/>
</svg>

<svg xmlns="http://www.w3.org/2000/svg" width="24" height="24"><path d="M2 6a1 1 0 0 1 1-1h15a1 1 0 1 1 0 2H3a1 1 0 0 1-1-1Zm0 12a1 1 0 0 1 1-1h11a1 1 0 1 1 0 2H3a1 1 0 0 1-1-1Zm1-7a1 1 0 1 0 0 2h18a1 1 0 1 0 0-2H3Z"/></svg>
